public/assets/pages/Home/AboutUsSection/AboutUsReasons/material-symbols_enterprise-outline.svg

<svg fill="none" height="44" viewBox="0 0 44 44" width="44" xmlns="http://www.w3.org/2000/svg"><path d="m21.9998 28.4165c1.0084 0 1.8719-.3587 2.5905-1.0762.7187-.7174 1.0774-1.5809 1.0762-2.5905-.0012-1.0095-.3599-1.8724-1.0762-2.5886-.7162-.7163-1.5797-1.0756-2.5905-1.078-1.0107-.0025-1.8736.3569-2.5886 1.078s-1.0744 1.584-1.078 2.5886c-.0037 1.0047.3556 1.8682 1.078 2.5905.7223.7224 1.5852 1.0811 2.5886 1.0762zm-14.66663 10.0833c-1.00833 0-1.87122-.3587-2.58867-1.0761-.71744-.7175-1.07677-1.581-1.078-2.5905v-20.1667c0-1.0083.35934-1.8712 1.078-2.5887.71867-.7174 1.58156-1.0767 2.58867-1.078h7.33333v-3.66663c0-1.00833.3593-1.87122 1.078-2.58867.7187-.71744 1.5816-1.07677 2.5887-1.078h7.3333c1.0083 0 1.8718.35934 2.5905 1.078.7187.71867 1.0774 1.58156 1.0762 2.58867v3.66663h7.3333c1.0083 0 1.8718.3594 2.5905 1.078.7187.7187 1.0774 1.5816 1.0762 2.5887v20.1667c0 1.0083-.3588 1.8718-1.0762 2.5905-.7174.7186-1.5809 1.0774-2.5905 1.0761zm0-3.6666h29.33333v-20.1667h-29.33333zm11.00003-23.8334h7.3333v-3.66663h-7.3333z" fill="#175d31"/></svg>

<svg width="44" height="44" viewBox="0 0 44 44" fill="none" xmlns="http://www.w3.org/2000/svg">
<path d="M21.9998 28.4165C23.0082 28.4165 23.8717 28.0578 24.5903 27.3403C25.309 26.6229 25.6677 25.7594 25.6665 24.7498C25.6653 23.7403 25.3066 22.8774 24.5903 22.1612C23.8741 21.4449 23.0106 21.0856 21.9998 21.0832C20.9891 21.0807 20.1262 21.4401 19.4112 22.1612C18.6962 22.8823 18.3368 23.7452 18.3332 24.7498C18.3295 25.7545 18.6888 26.618 19.4112 27.3403C20.1335 28.0627 20.9964 28.4214 21.9998 28.4165ZM7.33317 38.4998C6.32484 38.4998 5.46195 38.1411 4.7445 37.4237C4.02706 36.7062 3.66773 35.8427 3.6665 34.8332V14.6665C3.6665 13.6582 4.02584 12.7953 4.7445 12.0778C5.46317 11.3604 6.32606 11.0011 7.33317 10.9998H14.6665V7.33317C14.6665 6.32484 15.0258 5.46195 15.7445 4.7445C16.4632 4.02706 17.3261 3.66773 18.3332 3.6665H25.6665C26.6748 3.6665 27.5383 4.02584 28.257 4.7445C28.9757 5.46317 29.3344 6.32606 29.3332 7.33317V10.9998H36.6665C37.6748 10.9998 38.5383 11.3592 39.257 12.0778C39.9757 12.7965 40.3344 13.6594 40.3332 14.6665V34.8332C40.3332 35.8415 39.9744 36.705 39.257 37.4237C38.5396 38.1423 37.6761 38.5011 36.6665 38.4998H7.33317ZM7.33317 34.8332H36.6665V14.6665H7.33317V34.8332ZM18.3332 10.9998H25.6665V7.33317H18.3332V10.9998Z" fill="#175D31"/>
</svg>
